img/icons/mime/large/abw.svg

<svg height="140.9" width="125.3" xmlns="http://www.w3.org/2000/svg" xmlns:xlink="http://www.w3.org/1999/xlink"><linearGradient id="a" gradientTransform="matrix(.939922 0 0 .896911 -12.081733 -3.352424)" gradientUnits="userSpaceOnUse" x1="24" x2="73" y1="16.4" y2="73.4"><stop offset="0" stop-color="#fff"/><stop offset="1" stop-color="#fff" stop-opacity="0"/></linearGradient><linearGradient id="b" gradientTransform="scale(1.0801 .92584)" gradientUnits="userSpaceOnUse" spreadMethod="reflect" x1="-54.6" x2="-66.5" y1="63.6" y2="49.7"><stop offset="0" stop-color="#900"/><stop offset="1" stop-color="#fff"/></linearGradient><linearGradient id="c" gradientTransform="matrix(.999352 0 0 1.000649 -151.1197 -.37325)" gradientUnits="userSpaceOnUse" spreadMethod="reflect" x1="52.7" x2="47.1" y1="81.2" y2="75.1"><stop offset="0" stop-color="#eed680"/><stop offset=".3" stop-color="#dfb546"/><stop offset="1" stop-color="#d1940c"/></linearGradient><rect fill="none" height="133.4" rx="22.9" stroke="#000" stroke-linejoin="round" stroke-opacity=".5" stroke-width="7.5" width="117.8" x="3.8" y="3.8"/><rect fill="#bab5ab" height="133.4" rx="22.9" stroke="#000" stroke-width="3.8" width="117.8" x="3.6" y="3.7"/><path d="m72.6 93.1h6.8l4.2 21.2h.1l6.2-21.2h7.3l6.2 21.2h.1l4.2-21.2h6.7l-7.3 28.6h-7.3l-6.1-21.2h-.2l-6.2 21.2h-7.4zm-29.6 28.6v-28.6h17.7c2.4 0 4.4.6 6 1.8 1.8 1.3 2.7 3.1 2.7 5.3 0 1.6-.4 3.1-1.1 4.4-.4.6-.8 1.1-1.4 1.5-.5.4-1.2.9-2 1.3 1.4.5 2.6 1.4 3.5 2.6s1.3 2.6 1.3 4.2c0 2.7-.9 4.7-2.7 6-1.5 1-3.6 1.5-6.3 1.5zm15.8-16.7c1.4 0 2.4-.3 3.1-.9.7-.7 1.1-1.5 1.1-2.7 0-2.4-1.4-3.6-4.2-3.6h-9.6v7.2zm0 12c1.4 0 2.4-.3 3.1-.9.7-.7 1.1-1.6 1.1-2.7 0-2.4-1.4-3.6-4.2-3.6h-9.6v7.2zm-48.2 4.7 12.3-28.6h6.3l12.3 28.6h-6.6l-2.8-6.9h-12l-2.9 6.9zm15.5-21.6-4.2 10.2h8.3z" fill="#fff"/><path d="m100.3 132.6h-75.7c-11.6 0-17.3-5.7-17.3-17.4 0 0 27.6-66.5 110.4-76.6v76.6c0 11.7-5.7 17.4-17.4 17.4z" fill="#fff" fill-opacity=".3"/><path d="m73.3 93.7h6.7l4.2 21.3h.2l6.2-21.3h7.3l6.1 21.3h.2l4.2-21.3h6.7l-7.3 28.7h-7.3l-6.2-21.2h-.1l-6.2 21.2h-7.4zm-29.6 28.7v-28.7h17.7c2.4 0 4.4.6 6 1.8 1.8 1.4 2.7 3.1 2.7 5.4 0 1.6-.4 3-1.2 4.3-.3.6-.8 1.1-1.3 1.6-.5.4-1.2.8-2 1.3 1.4.5 2.6 1.4 3.5 2.6s1.3 2.6 1.3 4.2c0 2.7-.9 4.7-2.7 5.9-1.5 1.1-3.6 1.6-6.3 1.6zm15.8-16.7c1.4 0 2.4-.3 3.1-.9.7-.7 1.1-1.6 1.1-2.7 0-2.4-1.4-3.6-4.2-3.6h-9.7v7.2zm0 12c1.4 0 2.4-.3 3.1-1 .7-.6 1.1-1.5 1.1-2.6 0-2.4-1.4-3.7-4.2-3.7h-9.7v7.3zm-48.2 4.7 12.3-28.7h6.3l12.2 28.7h-6.5l-2.9-7h-11.9l-2.9 7zm15.4-21.7-4.2 10.3h8.4z"/><g stroke="#000" transform="translate(130.96752 -9.864116)"><path d="m-81.3 63.1 5 1.1-2-3.1z" stroke-width=".7"/><path d="m-62.2 51s1.6-.3 1.6-.3 1.4 1.1 1.4 1.1c0-.6-.3-.9-1-1.2 0 0 .1-.3.1-.3.7-.1.9-.1 1.4-.7 0 0-1.9.3-1.9.3s-1.2-.9-1.2-.9c0 .6.2.7.8 1.1 0 0-1.2.9-1.2.9zm.7-2.6s.8.5.8.5c1.5-.4 1.9.4 2.3-1 0 0-.3-.1-.3-.1-.5.7-.9.7-1.7.5 0 0 .2-.8.2-.8s-.4-.1-.4-.1-.2.8-.2.8-.6-.1-.6-.1-.1.3-.1.3zm3.1-2.6c0 .8-.1.9-.9 1.4 0 0 .4-1.6.4-1.6-1.8 0-1.6 1.4-.8 1.9 1.2.4 2.2-.9 1.3-1.7zm-1.6-1s2.2.4 2.2.4.1-.3.1-.3c-1-.2-1.6-.3-1.7-1.3 0 0-.3-.1-.3-.1s.1.9.1.9-.4.4-.4.4zm.3-1.6s2.3.5 2.3.5v-.3c-.3-.1-2.2-.5-1.3-1.2.2-.2 1.2 0 1.6.1v-.4c-.3 0-2-.4-1.4-.9.3-.3 1.3-.1 1.6 0 0 0 .1-.5.1-.5-.5-.1-1.3-.3-1.9-.2-.4.2-.7 1.6-.6 2.1-.1.2.1.2.1.4 0 0-.5.4-.5.4zm.3 2.7s-.2 1.2-.2 1.2c-.4-.5-.5-.9.2-1.2z" fill="none" stroke-width=".2"/><path d="m-90.4 65.7c15.3-16.3 46.8-48.4 58.4-36.6 10.3 12.3-29.6 37.7-46.4 48.5z" fill="url(#b)" stroke-width="3.6"/><path d="m-80.3 76.3s-3.6 7-1.8 9c1.8 1.6-15.7 6.9-18.6 6.6 0 0-2.5 5.4-6 1.8-3.6-3.7 2-6.3 2-6.3 0-4.2 4.7-20.2 6.4-18.4 1.8 1.8 9.1-1.8 9.1-1.8s8.9 9.1 8.9 9.1z" fill="url(#c)" fill-opacity=".8" stroke-width="2.7"/><path d="m-105.5 92.5s14.5-14.3 14.5-14.3" fill="none" stroke-linecap="round" stroke-linejoin="round" stroke-width=".7"/></g><path d="m24.6 7.3h75.7c11.7 0 17.4 5.7 17.4 17.4 0 0-79.3.9-110.4 91.3v-91.3c0-10.3 7-17.4 17.3-17.4z" fill="url(#a)"/></svg>

<svg xmlns:svg="http://www.w3.org/2000/svg" xmlns="http://www.w3.org/2000/svg" xmlns:xlink="http://www.w3.org/1999/xlink" height="140.9" width="125.3" id="svg1" version="1">
  <style>
    
.s0{
  stop-color:#ffffff;
  stop-opacity:1;
}
.s1{
  stop-color:#46a046;
  stop-opacity:1;
}
.s2{
  stop-color:#df421e;
  stop-opacity:1;
}
.s3{
  stop-color:#ada7c8;
  stop-opacity:1;
}
.s4{
  stop-color:#eed680;
  stop-opacity:1;
}
.s5{
  stop-color:#ffff00;
  stop-opacity:1;
}
.s6{
  stop-color:#ffea00;
  stop-opacity:1;
}
.s7{
  stop-color:#ffd600;
  stop-opacity:1;
}
.s8{
  stop-color:#dfb546;
  stop-opacity:1;
}
.s9{
  stop-color:#d1940c;
  stop-opacity:1;
}


  </style>
  <metadata id="metadata15"/>
  <defs id="defs3">
    <linearGradient id="linearGradient3587">
      <stop offset="0" id="stop3589" style="stop-color:#efe0cd;stop-opacity:0.6"/>
      <stop offset="1" id="stop3591" style="stop-color:#cececd;stop-opacity:0.2"/>
    </linearGradient>
    <linearGradient id="linearGradient2832">
      <stop id="stop2834" offset="0" class="s0"/>
      <stop id="stop2836" offset="1" style="stop-color:#ffffff;stop-opacity:0"/>
    </linearGradient>
    <linearGradient id="linearGradient839">
      <stop id="stop840" offset="0" class="s1"/>
      <stop id="stop841" offset="0.4" class="s2"/>
      <stop id="stop842" offset="0.7" class="s3"/>
      <stop id="stop843" offset="1" class="s4"/>
    </linearGradient>
    <linearGradient y2="0.5" x2="1" y1="0.5" x1="0" id="linearGradient836" xlink:href="#linearGradient839"/>
    <linearGradient gradientUnits="userSpaceOnUse" y2="73.4" x2="73" y1="16.4" x1="24" gradientTransform="matrix(0.939922,0,0,0.896911,-12.081733,-3.3524237)" id="linearGradient2830" xlink:href="#linearGradient2832"/>
    <linearGradient xlink:href="#linearGradient869" id="linearGradient674" x1="95.1" y1="73.5" x2="76.6" y2="55.1" spreadMethod="reflect" gradientTransform="scale(1.0801,0.92584)" gradientUnits="userSpaceOnUse"/>
    <linearGradient xlink:href="#linearGradient839" id="linearGradient1373" x1="0" y1="0.5" x2="1" y2="0.5"/>
    <linearGradient id="linearGradient1363">
      <stop offset="0" id="stop1365" class="s1"/>
      <stop offset="0.4" id="stop1367" class="s2"/>
      <stop offset="0.7" id="stop1369" class="s3"/>
      <stop offset="1" id="stop1371" class="s4"/>
    </linearGradient>
    <linearGradient xlink:href="#linearGradient907" id="linearGradient904" x1="52.7" y1="81.2" x2="47.1" y2="75.1" spreadMethod="reflect" gradientTransform="scale(0.999352,1.000649)" gradientUnits="userSpaceOnUse"/>
    <linearGradient id="linearGradient866">
      <stop offset="0" id="stop867" class="s5"/>
      <stop offset="0.4" id="stop901" class="s6"/>
      <stop offset="1" id="stop868" class="s7"/>
    </linearGradient>
    <linearGradient id="linearGradient869">
      <stop offset="0" id="stop870" style="stop-color:#990000;stop-opacity:1"/>
      <stop offset="1" id="stop871" class="s0"/>
    </linearGradient>
    <linearGradient id="linearGradient907">
      <stop offset="0" id="stop908" class="s4"/>
      <stop offset="0.3" id="stop911" class="s8"/>
      <stop offset="1" id="stop910" class="s9"/>
    </linearGradient>
    <linearGradient xlink:href="#linearGradient869" id="linearGradient2167" gradientUnits="userSpaceOnUse" gradientTransform="scale(1.0801,0.92584)" spreadMethod="reflect" x1="-54.6" y1="63.6" x2="-66.5" y2="49.7"/>
    <linearGradient xlink:href="#linearGradient907" id="linearGradient2169" gradientUnits="userSpaceOnUse" gradientTransform="matrix(0.999352,0,0,1.000649,-151.1197,-0.37325)" spreadMethod="reflect" x1="52.7" y1="81.2" x2="47.1" y2="75.1"/>
    <linearGradient spreadMethod="reflect" y2="0.5" x2="0.4" y1="0.8" x1="0.7" id="linearGradient1414" xlink:href="#linearGradient869"/>
    <linearGradient y2="0.5" x2="1" y1="0.5" x1="0" id="linearGradient1412" xlink:href="#linearGradient839"/>
    <linearGradient id="linearGradient1402">
      <stop id="stop1404" offset="0" class="s1"/>
      <stop id="stop1406" offset="0.4" class="s2"/>
      <stop id="stop1408" offset="0.7" class="s3"/>
      <stop id="stop1410" offset="1" class="s4"/>
    </linearGradient>
    <linearGradient spreadMethod="reflect" y2="0.3" x2="0.2" y1="0.5" x1="0.4" id="linearGradient1400" xlink:href="#linearGradient907"/>
    <linearGradient id="linearGradient1392">
      <stop id="stop1394" offset="0" class="s5"/>
      <stop id="stop1396" offset="0.4" class="s6"/>
      <stop id="stop1398" offset="1" class="s7"/>
    </linearGradient>
    <linearGradient id="linearGradient1385">
      <stop id="stop1387" offset="0" style="stop-color:#7590ae;stop-opacity:1"/>
      <stop id="stop912" offset="0.9" style="stop-color:#89a4c0;stop-opacity:1"/>
      <stop id="stop1390" offset="1" style="stop-color:#9db8d2;stop-opacity:1"/>
    </linearGradient>
    <linearGradient id="linearGradient1377">
      <stop id="stop1379" offset="0" class="s4"/>
      <stop id="stop1381" offset="0.3" class="s8"/>
      <stop id="stop1383" offset="1" class="s9"/>
    </linearGradient>
  </defs>
  <rect rx="22.9" ry="22.9" y="3.8" x="3.8" height="133.4" width="117.8" id="rect834" style="fill:none;stroke-linejoin:round;stroke-opacity:0.5;stroke-width:7.5;stroke:#000"/>
  <rect rx="22.9" ry="22.9" y="3.7" x="3.6" height="133.4" width="117.8" id="rect828" style="fill:#bab5ab;stroke-width:3.8;stroke:#000"/>
  <path id="path1443" d="M72.6 93.1L79.4 93.1 83.6 114.3 83.7 114.3 89.9 93.1 97.2 93.1 103.4 114.3 103.5 114.3 107.7 93.1 114.4 93.1 107.1 121.7 99.8 121.7 93.7 100.5 93.5 100.5 87.3 121.7 79.9 121.7 72.6 93.1zM43 121.7L43 93.1 60.7 93.1C63.1 93.1 65.1 93.7 66.7 94.9 68.5 96.2 69.4 98 69.4 100.2 69.4 101.8 69 103.3 68.3 104.6 67.9 105.2 67.5 105.7 66.9 106.1 66.4 106.5 65.7 107 64.9 107.4 66.3 107.9 67.5 108.8 68.4 110 69.3 111.2 69.7 112.6 69.7 114.2 69.7 116.9 68.8 118.9 67 120.2 65.5 121.2 63.4 121.7 60.7 121.7L43 121.7zM58.8 105C60.2 105 61.2 104.7 61.9 104.1 62.6 103.4 63 102.6 63 101.4 63 99 61.6 97.8 58.8 97.8L49.2 97.8 49.2 105 58.8 105zM58.8 117C60.2 117 61.2 116.7 61.9 116.1 62.6 115.4 63 114.5 63 113.4 63 111 61.6 109.8 58.8 109.8L49.2 109.8 49.2 117 58.8 117zM10.6 121.7L22.9 93.1 29.2 93.1 41.5 121.7 34.9 121.7 32.1 114.8 20.1 114.8 17.2 121.7 10.6 121.7zM26.1 100.1L21.9 110.3 30.2 110.3 26.1 100.1z" style="fill:#fff;font-family:Trek;font-size:40"/>
  <path id="path2838" d="M100.3 132.6L24.6 132.6C13 132.6 7.3 126.9 7.3 115.2 7.3 115.2 34.9 48.7 117.7 38.6L117.7 115.2C117.7 126.9 112 132.6 100.3 132.6z" style="fill-opacity:0.3;fill:#fff"/>
  <path id="path861" d="M73.3 93.7L80 93.7 84.2 115 84.4 115 90.6 93.7 97.9 93.7 104 115 104.2 115 108.4 93.7 115.1 93.7 107.8 122.4 100.5 122.4 94.3 101.2 94.2 101.2 88 122.4 80.6 122.4 73.3 93.7zM43.7 122.4L43.7 93.7 61.4 93.7C63.8 93.7 65.8 94.3 67.4 95.5 69.2 96.9 70.1 98.6 70.1 100.9 70.1 102.5 69.7 103.9 68.9 105.2 68.6 105.8 68.1 106.3 67.6 106.8 67.1 107.2 66.4 107.6 65.6 108.1 67 108.6 68.2 109.5 69.1 110.7 70 111.9 70.4 113.3 70.4 114.9 70.4 117.6 69.5 119.6 67.7 120.8 66.2 121.9 64.1 122.4 61.4 122.4L43.7 122.4zM59.5 105.7C60.9 105.7 61.9 105.4 62.6 104.8 63.3 104.1 63.7 103.2 63.7 102.1 63.7 99.7 62.3 98.5 59.5 98.5L49.8 98.5 49.8 105.7 59.5 105.7zM59.5 117.7C60.9 117.7 61.9 117.4 62.6 116.7 63.3 116.1 63.7 115.2 63.7 114.1 63.7 111.7 62.3 110.4 59.5 110.4L49.8 110.4 49.8 117.7 59.5 117.7zM11.3 122.4L23.6 93.7 29.9 93.7 42.1 122.4 35.6 122.4 32.7 115.4 20.8 115.4 17.9 122.4 11.3 122.4zM26.7 100.7L22.5 111 30.9 111 26.7 100.7z" style="font-family:Trek;font-size:40"/>
  <g id="g2160" transform="translate(130.96752,-9.8641157)">
    <path d="M-81.3 63.1L-76.3 64.2-78.3 61.1-81.3 63.1z" id="path873" style="stroke-width:0.7;stroke:#000"/>
    <path id="path900" d="M-62.2 51C-62.2 51-60.6 50.7-60.6 50.7-60.6 50.7-59.2 51.8-59.2 51.8-59.2 51.2-59.5 50.9-60.2 50.6-60.2 50.6-60.1 50.3-60.1 50.3-59.4 50.2-59.2 50.2-58.7 49.6-58.7 49.6-60.6 49.9-60.6 49.9-60.6 49.9-61.8 49-61.8 49-61.8 49.6-61.6 49.7-61 50.1-61 50.1-62.2 51-62.2 51zM-61.5 48.4C-61.5 48.4-60.7 48.9-60.7 48.9-59.2 48.5-58.8 49.3-58.4 47.9-58.4 47.9-58.7 47.8-58.7 47.8-59.2 48.5-59.6 48.5-60.4 48.3-60.4 48.3-60.2 47.5-60.2 47.5-60.2 47.5-60.6 47.4-60.6 47.4-60.6 47.4-60.8 48.2-60.8 48.2-60.8 48.2-61.4 48.1-61.4 48.1-61.4 48.1-61.5 48.4-61.5 48.4zM-58.4 45.8C-58.4 46.6-58.5 46.7-59.3 47.2-59.3 47.2-58.9 45.6-58.9 45.6-60.7 45.6-60.5 47-59.7 47.5-58.5 47.9-57.5 46.6-58.4 45.8zM-60 44.8C-60 44.8-57.8 45.2-57.8 45.2-57.8 45.2-57.7 44.9-57.7 44.9-58.7 44.7-59.3 44.6-59.4 43.6-59.4 43.6-59.7 43.5-59.7 43.5-59.7 43.5-59.6 44.4-59.6 44.4-59.6 44.4-60 44.8-60 44.8zM-59.7 43.2C-59.7 43.2-57.4 43.7-57.4 43.7-57.4 43.7-57.4 43.4-57.4 43.4-57.7 43.3-59.6 42.9-58.7 42.2-58.5 42-57.5 42.2-57.1 42.3-57.1 42.3-57.1 41.9-57.1 41.9-57.4 41.9-59.1 41.5-58.5 41-58.2 40.7-57.2 40.9-56.9 41-56.9 41-56.8 40.5-56.8 40.5-57.3 40.4-58.1 40.2-58.7 40.3-59.1 40.5-59.4 41.9-59.3 42.4-59.4 42.6-59.2 42.6-59.2 42.8-59.2 42.8-59.7 43.2-59.7 43.2zM-59.4 45.9C-59.4 45.9-59.6 47.1-59.6 47.1-60 46.6-60.1 46.2-59.4 45.9z" style="fill:none;stroke-width:0.2;stroke:#000"/>
    <path d="M-90.4 65.7C-75.1 49.4-43.6 17.3-32 29.1-21.7 41.4-61.6 66.8-78.4 77.6L-90.4 65.7z" id="path879" style="fill:url(#linearGradient2167);stroke-width:3.6;stroke:#000"/>
    <path d="M-80.3 76.3C-80.3 76.3-83.9 83.3-82.1 85.3-80.3 86.9-97.8 92.2-100.7 91.9-100.7 91.9-103.2 97.3-106.7 93.7-110.3 90-104.7 87.4-104.7 87.4-104.7 83.2-100 67.2-98.3 69-96.5 70.8-89.2 67.2-89.2 67.2-89.2 67.2-80.3 76.3-80.3 76.3z" id="path868" style="fill-opacity:0.8;fill:url(#linearGradient2169);stroke-width:2.7;stroke:#000"/>
    <path d="M-105.5 92.5C-105.5 92.5-91 78.2-91 78.2" id="path876" style="fill:none;stroke-linecap:round;stroke-linejoin:round;stroke-width:0.7;stroke:#000"/>
  </g>
  <path id="rect2063" d="M24.6 7.3L100.3 7.3C112 7.3 117.7 13 117.7 24.7 117.7 24.7 38.4 25.6 7.3 116L7.3 24.7C7.3 14.4 14.3 7.3 24.6 7.3z" fill="url(#linearGradient2830)"/>
</svg>
